X:1
T:Drink to me only
T:Drink to me only
T:Composed by an amateur and most respectfully inscribed to Miss Fisher
T:London, c.1785
C:London, c.1785
%%score [ 1 2 3 ]
L:1/8
M:6/8
K:G
V:1 treble-8 nm="Tenor"
V:2 treble-8 nm="Tenor"
V:3 bass nm="Bass"
V:1
 B B B c2 c | (dc) B (AB) c | (dG) c B2 A |1 G3- G3 :|2 G3- G2 |: d | (dB) d g2 d | (dB) d d2 d | %8
w: Drink to me on- ly|with _ thine eyes _ and|I _ will pledge with|mine. _|mine, _|Or|leave _ a kiss with-|in _ the cup, and|
 e2 d c2 B | B3 A2 z | B B B c2 c | (dc) B (AB) c | (dG) c B2 A | G3- G2 :| %14
w: I'll not look for|wine, _|Drink to me on- ly|with _ thine eyes _ and|I _ will pledge with|mine. _|
V:2
 G G G A2 A | (BA) G (FG) A | (GB) A G2 D |1 B,3- B,3 :|2 B,3- B,2 |: B | (BG) B B2 B | %7
w: Drink to me on- ly|with _ thine eyes _ and|I _ will pledge with|mine. _|mine, _|Or|leave _ a kiss with-|
 (BG) B B2 B | c2 B A2 G | G3 F2 z | G G G A2 A | (BA) G (FG) A | (GB) A G2 D | B,3- B,2 :| %14
w: in _ the cup, and|I'll not look for|wine, _|Drink to me on- ly|with _ thine eyes _ and|I _ will pledge with|mine. _|
V:3
 G, G, G, G,2 G, | G,2 G, D,2 C, | B,,2 C, D,2 D, |1 G,,3- G,,3 :|2 G,,3- G,,2 |: G, | %6
w: Drink to me on- ly|with thine eyes and|I will pledge with|mine. _|mine, _|Or|
 G,2 G, G,2 G, | G,2 G, G,2 G, | G,2 G, F,2 G, | D,3- D,2 z | G, G, G, G,2 G, | G,2 G, D,2 C, | %12
w: leave a kiss with-|in the cup, and|I'll not look for|wine, _|Drink to me on- ly|with thine eyes and|
 B,,2 C, D,2 D, | G,,3- G,,2 :| %14
w: I will pledge with|mine. _|

